packages/astro-components-stencil/src/icons/motorcycle.svg

<svg xmlns="http://www.w3.org/2000/svg" viewBox="0 0 24 24"><g xmlns="http://www.w3.org/2000/svg" id="motorcycle" fill-rule="nonzero">
            <path d="M19.44 9.03L17.31 6.9l-1.6-1.6c-.19-.19-.45-.3-.71-.3h-3c-.55 0-1 .45-1 1s.45 1 1 1h2.59l2 2H5c-2.8 0-5 2.2-5 5s2.2 5 5 5c2.46 0 4.45-1.69 4.9-4h.82c.53 0 1.04-.21 1.41-.59l2.18-2.18c-.2.54-.31 1.14-.31 1.77 0 2.8 2.2 5 5 5s5-2.2 5-5c0-2.65-1.97-4.77-4.56-4.97zM5 15h2.82C7.4 16.15 6.28 17 5 17c-1.63 0-3-1.37-3-3s1.37-3 3-3c1.28 0 2.4.85 2.82 2H5c-.55 0-1 .45-1 1s.45 1 1 1zm14 2c-1.66 0-3-1.34-3-3s1.34-3 3-3 3 1.34 3 3-1.34 3-3 3z"/>
        </g></svg>

<svg width="24" height="24" viewBox="0 0 24 24" fill="none" xmlns="http://www.w3.org/2000/svg">
<path fill-rule="evenodd" clip-rule="evenodd" d="M19.44 9.03L17.31 6.9L15.71 5.3C15.52 5.11 15.26 5 15 5H12C11.45 5 11 5.45 11 6C11 6.55 11.45 7 12 7H14.59L16.59 9H5C2.2 9 0 11.2 0 14C0 16.8 2.2 19 5 19C7.46 19 9.45 17.31 9.9 15H10.72C11.25 15 11.76 14.79 12.13 14.41L14.31 12.23C14.11 12.77 14 13.37 14 14C14 16.8 16.2 19 19 19C21.8 19 24 16.8 24 14C24 11.35 22.03 9.23 19.44 9.03ZM5 15H7.82C7.4 16.15 6.28 17 5 17C3.37 17 2 15.63 2 14C2 12.37 3.37 11 5 11C6.28 11 7.4 11.85 7.82 13H5C4.45 13 4 13.45 4 14C4 14.55 4.45 15 5 15ZM16 14C16 15.66 17.34 17 19 17C20.66 17 22 15.66 22 14C22 12.34 20.66 11 19 11C17.34 11 16 12.34 16 14Z" fill="black"/>
</svg>
